img/icons/svg/contracts__icon-5.svg

<svg width="51" height="51" viewBox="0 0 51 51" fill="none" xmlns="http://www.w3.org/2000/svg">
<path d="M33.4688 3.1875H30.0071C29.3505 1.33237 27.5782 0 25.5 0C23.4218 0 21.6495 1.33237 20.9897 3.1875H17.5312C16.6515 3.1875 15.9375 3.9015 15.9375 4.78125V11.1562C15.9375 12.036 16.6515 12.75 17.5312 12.75H33.4688C34.3485 12.75 35.0625 12.036 35.0625 11.1562V4.78125C35.0625 3.9015 34.3485 3.1875 33.4688 3.1875Z" fill="#304BAB"/>
<path d="M41.4375 6.375H38.25V11.1562C38.25 13.7923 36.1048 15.9375 33.4688 15.9375H17.5312C14.8952 15.9375 12.75 13.7923 12.75 11.1562V6.375H9.5625C7.80619 6.375 6.375 7.80619 6.375 9.5625V47.8125C6.375 49.6007 7.77431 51 9.5625 51H41.4375C43.2257 51 44.625 49.6007 44.625 47.8125V9.5625C44.625 7.77431 43.2257 6.375 41.4375 6.375ZM25.0346 34.5971L18.6596 40.9721C18.3472 41.2813 17.9392 41.4375 17.5312 41.4375C17.1233 41.4375 16.7153 41.2813 16.4029 40.9721L13.2154 37.7846C12.5938 37.1631 12.5938 36.1526 13.2154 35.5311C13.8369 34.9095 14.8474 34.9095 15.4689 35.5311L17.5312 37.5902L22.7779 32.3436C23.3994 31.722 24.4099 31.722 25.0314 32.3436C25.653 32.9651 25.6562 33.9724 25.0346 34.5971ZM25.0346 21.8471L18.6596 28.2221C18.3472 28.5313 17.9392 28.6875 17.5312 28.6875C17.1233 28.6875 16.7153 28.5313 16.4029 28.2221L13.2154 25.0346C12.5938 24.4131 12.5938 23.4026 13.2154 22.7811C13.8369 22.1595 14.8474 22.1595 15.4689 22.7811L17.5312 24.8402L22.7779 19.5936C23.3994 18.972 24.4099 18.972 25.0314 19.5936C25.653 20.2151 25.6562 21.2224 25.0346 21.8471ZM36.6562 38.25H30.2812C29.4015 38.25 28.6875 37.536 28.6875 36.6562C28.6875 35.7765 29.4015 35.0625 30.2812 35.0625H36.6562C37.536 35.0625 38.25 35.7765 38.25 36.6562C38.25 37.536 37.536 38.25 36.6562 38.25ZM36.6562 25.5H30.2812C29.4015 25.5 28.6875 24.786 28.6875 23.9062C28.6875 23.0265 29.4015 22.3125 30.2812 22.3125H36.6562C37.536 22.3125 38.25 23.0265 38.25 23.9062C38.25 24.786 37.536 25.5 36.6562 25.5Z" fill="#304BAB"/>
</svg>

<svg width="51" height="51" viewBox="0 0 51 51" fill="none" xmlns="http://www.w3.org/2000/svg"><path d="M33.469 3.188h-3.462A4.787 4.787 0 0025.5 0a4.794 4.794 0 00-4.51 3.188h-3.46c-.88 0-1.593.713-1.593 1.593v6.375c0 .88.713 1.594 1.593 1.594h15.94c.88 0 1.593-.714 1.593-1.594V4.781c0-.88-.713-1.593-1.593-1.593z" fill="#304BAB"/><path d="M41.438 6.375H38.25v4.781a4.787 4.787 0 01-4.781 4.781H17.53a4.787 4.787 0 01-4.781-4.78V6.374H9.562a3.193 3.193 0 00-3.187 3.188v38.25C6.375 49.6 7.775 51 9.563 51h31.874c1.789 0 3.188-1.4 3.188-3.188V9.563c0-1.788-1.4-3.187-3.188-3.187zM25.035 34.597l-6.375 6.375a1.6 1.6 0 01-2.257 0l-3.188-3.187a1.595 1.595 0 012.254-2.254l2.062 2.06 5.247-5.247a1.595 1.595 0 012.257 2.253zm0-12.75l-6.375 6.375a1.6 1.6 0 01-2.257 0l-3.188-3.187a1.595 1.595 0 012.254-2.254l2.062 2.06 5.247-5.247a1.595 1.595 0 012.257 2.253zM36.656 38.25h-6.375a1.594 1.594 0 010-3.188h6.375a1.594 1.594 0 010 3.188zm0-12.75h-6.375a1.594 1.594 0 010-3.188h6.375a1.594 1.594 0 010 3.188z" fill="#304BAB"/></svg>
